icons/printer-two-color.svg

<?xml version="1.0" encoding="UTF-8"?><svg id="uuid-ddbcdccd-a818-47ef-8b55-c9d991dcc78e" xmlns="http://www.w3.org/2000/svg" viewBox="0 0 50 50"><path d="M14.97,40.07h19.79c.28,0,.5-.22,.5-.5,0-.03-.01-.06-.02-.09H14.49s-.02,.06-.02,.09c0,.28,.22,.5,.5,.5Z" fill="none"/><path d="M34.77,39.07H14.97c-.24,0-.44,.18-.48,.41h20.76c-.04-.23-.24-.41-.48-.41Z" fill="#ffcd00"/><path d="M3.54,16.53v22.95h6.43v-12.48h29.87v11.16s-.01,.04-.01,.07,.01,.05,.01,.07v1.18h9.38V16.53H3.54Z" fill="#ffcd00"/><path d="M35.26,32.96H14.97c-.28,0-.5,.22-.5,.5s.22,.5,.5,.5h20.28c.28,0,.5-.22,.5-.5s-.22-.5-.5-.5Z" fill="#ffcd00"/><path d="M38.98,19.29c-.71,0-1.28,.57-1.28,1.28s.57,1.28,1.28,1.28,1.28-.57,1.28-1.28-.57-1.28-1.28-1.28Z"/><path d="M34.77,39.07H14.97c-.28,0-.5,.22-.5,.5s.22,.5,.5,.5h19.79c.28,0,.5-.22,.5-.5s-.22-.5-.5-.5Z"/><path d="M35.26,32.96H14.97c-.28,0-.5,.22-.5,.5s.22,.5,.5,.5h20.28c.28,0,.5-.22,.5-.5s-.22-.5-.5-.5Z"/><path d="M47.96,13.78h-7.44V5.86c0-1.6-1.71-2.9-3.81-2.9H12.77c-2.1,0-3.81,1.3-3.81,2.9v7.92H1.29c-.28,0-.5,.22-.5,.5v23.95c0,.28,.22,.5,.5,.5h7.68v7.81c0,.28,.22,.5,.5,.5h30.87c.28,0,.5-.22,.5-.5v-7.81h7.13c.28,0,.5-.22,.5-.5V14.28c0-.28-.22-.5-.5-.5ZM9.97,5.86c0-1.03,1.29-1.9,2.81-1.9h23.94c1.52,0,2.81,.87,2.81,1.9v7.92H9.97V5.86Zm0,40.17V27h29.87v11.16s-.01,.04-.01,.07,.01,.05,.01,.07v7.74H9.97Zm37.5-8.31h-6.63v-11.23c0-.28-.22-.5-.5-.5H9.47c-.28,0-.5,.22-.5,.5v11.23H1.79V14.78H47.46v22.95Z"/></svg>

<svg id="bd4d36da-c2e1-49c2-aeed-0ab34e0937eb" data-name="ICONS" xmlns="http://www.w3.org/2000/svg" viewBox="0 0 50 50"><path d="M15,40.07h19.8a.5.5,0,0,0,.5-.5s0-.06,0-.09H14.49s0,.06,0,.09A.5.5,0,0,0,15,40.07Z" fill="none"/><path d="M34.77,39.07H15a.5.5,0,0,0-.48.41H35.25A.5.5,0,0,0,34.77,39.07Z" fill="#fdd600"/><path d="M3.54,16.53V39.48H10V27H39.83V38.16s0,0,0,.07,0,0,0,.07v1.18h9.38V16.53Z" fill="#fdd600"/><path d="M35.26,33H15a.51.51,0,0,0-.5.5.5.5,0,0,0,.5.5H35.26a.5.5,0,0,0,.5-.5A.51.51,0,0,0,35.26,33Z" fill="#fdd600"/><path d="M39,19.29a1.29,1.29,0,1,0,1.28,1.28A1.28,1.28,0,0,0,39,19.29Z" fill="#231f20"/><path d="M34.77,39.07H15a.51.51,0,0,0-.5.5.5.5,0,0,0,.5.5h19.8a.5.5,0,0,0,.5-.5A.51.51,0,0,0,34.77,39.07Z" fill="#231f20"/><path d="M35.26,33H15a.51.51,0,0,0-.5.5.5.5,0,0,0,.5.5H35.26a.5.5,0,0,0,.5-.5A.51.51,0,0,0,35.26,33Z" fill="#231f20"/><path d="M48,13.78H40.52V5.86c0-1.6-1.71-2.9-3.81-2.9H12.77C10.67,3,9,4.26,9,5.86v7.92H1.29a.5.5,0,0,0-.5.5V38.23a.5.5,0,0,0,.5.5H9v7.81a.5.5,0,0,0,.5.5H40.33a.5.5,0,0,0,.5-.5V38.73H48a.5.5,0,0,0,.5-.5V14.28A.5.5,0,0,0,48,13.78ZM10,5.86c0-1,1.28-1.9,2.8-1.9H36.71c1.52,0,2.81.87,2.81,1.9v7.92H10ZM10,46V27H39.83V38.16s0,0,0,.07,0,0,0,.07V46Zm37.49-8.31H40.83V26.5a.5.5,0,0,0-.5-.5H9.47a.5.5,0,0,0-.5.5V37.73H1.79V14.78H47.46Z" fill="#231f20"/></svg>
